!!!COM: Anonymous
!!!OPR: Missa L'ardant desir
!!!ONM: 1
!!!OTL: Kyrie
!!!AGN: Mass; Kyrie
!!!SCT: Ano1025a
!!!SCA: Ano1025a
!!!SMS: Capella Sistina 51
!!!folio-OPR: 90v-104r
!!!folio:
!!!voices: 4
**kern	**text	**kern	**text	**kern	**text	**kern	**text
*staff4	*staff4	*staff3	*staff3	*staff2	*staff2	*staff1	*staff1
*Ivox	*	*Ivox	*	*Ivox	*	*Ivox	*
*I"Bassus	*	*I"Tenor	*	*I"Altus	*	*I"Discantus	*
*I'B	*	*I'T	*	*I'A	*	*I'D	*
*>[A,B,C]	*>[A,B,C]	*>[A,B,C]	*>[A,B,C]	*>[A,B,C]	*>[A,B,C]	*>[A,B,C]	*>[A,B,C]
*>A	*>A	*>A	*>A	*>A	*>A	*>A	*>A
*clefF4	*	*clefGv2	*	*clefGv2	*	*clefG2	*
*k[]	*	*k[]	*	*k[]	*	*k[]	*
*M3/1	*	*M3/1	*	*M3/1	*	*M3/1	*
*met(O)	*	*met(O)	*	*met(O)	*	*met(O)	*
*MM300	*	*MM300	*	*MM300	*	*MM300	*
!!section: Kyrie I
!!!OMD: Kyrie I
=1-	=1-	=1-	=1-	=1-	=1-	=1-	=1-
!	!	!LO:TX:X=-40:Z=8:t=MS preserves resolutions only; this edition based on inferred ``original'' notation	!	!	!	!	!
0.r	.	0.r	.	0.A	Ky-	[0.a	Ky-
=2	=2	=2	=2	=2	=2	=2	=2
0.r	.	0.r	.	0.c	-ri-	1a]	.
.	.	.	.	.	.	0e	-ri-
=3	=3	=3	=3	=3	=3	=3	=3
0.r	.	0.r	.	0d	-e	1d	-e
.	.	.	.	.	.	1f	e-
.	.	.	.	1c	e-	2e	-lei-
.	.	.	.	.	.	[2a	.
=4	=4	=4	=4	=4	=4	=4	=4
0.r	.	0.r	.	2d	-lei-	1a]	.
.	.	.	.	2f	.	.	.
.	.	.	.	2e	.	2g	.
.	.	.	.	2d	.	1f	.
.	.	.	.	1A	.	.	.
.	.	.	.	.	.	[2e	.
=5	=5	=5	=5	=5	=5	=5	=5
0.r	.	0.r	.	1c	.	2e]	.
.	.	.	.	.	.	4d	.
.	.	.	.	.	.	4c	.
.	.	.	.	1d	.	1B	.
.	.	.	.	1e	.	2A	.
.	.	.	.	.	.	2c	.
=6	=6	=6	=6	=6	=6	=6	=6
0.r	.	0.r	.	1d	.	2d	.
.	.	.	.	.	.	2f	.
.	.	.	.	1c	.	2e	.
.	.	.	.	.	.	1a	.
.	.	.	.	1B-i	.	.	.
.	.	.	.	.	.	2g	.
=7	=7	=7	=7	=7	=7	=7	=7
0AA	Ky-	1A	Ky-	0A	-son,	2.a	.
.	.	.	.	.	.	4g	.
.	.	1c	-ri-	.	.	2e	.
.	.	.	.	.	.	1f	.
[1A	-ri-	1d	-e,	1D	.	.	.
.	.	.	.	.	.	2d	.
=8	=8	=8	=8	=8	=8	=8	=8
1A]	.	1c	.	1r	.	1e	-son,
1D	-e,	2d	.	2.A	ky-	1d	.
.	.	2f	.	.	.	.	.
.	.	.	.	4B	.	.	.
2C	ky-	2e	.	2c	.	1r	.
[2D	.	2d	.	4A	.	.	.
.	.	.	.	[4d	.	.	.
=9	=9	=9	=9	=9	=9	=9	=9
2D]	.	1A	.	4d]	.	1d	ky-
.	.	.	.	4c	.	.	.
2F	.	.	.	1A	.	.	.
1E	.	1c	ky-	.	.	1e	.
.	.	.	.	2G	.	.	.
1D	-ri-	1d	-ri-	2A	-ri-	1f	-ri-
.	.	.	.	2B	.	.	.
=10	=10	=10	=10	=10	=10	=10	=10
1C	-e	1e	-e	1c	-e	2g	-e
.	.	.	.	.	.	1a	.
1D	.	1d	.	1B	.	.	.
.	.	.	.	.	.	2f	.
2E	.	1c	.	1G	.	2g	.
2F	.	.	.	.	.	4f	.
.	.	.	.	.	.	4e	.
=11	=11	=11	=11	=11	=11	=11	=11
1G	.	0.B-i	e-	1r	.	1d	.
1r	.	.	.	0d	e-	0g	e-
1G	e-	.	.	.	.	.	.
=12	=12	=12	=12	=12	=12	=12	=12
1.c	.	0.A	-lei-	0e	-lei-	1.a	-lei-
1.c	-lei-	.	.	.	.	4g	.
.	.	.	.	.	.	4f	.
.	.	.	.	[1A	.	1e	.
=13	=13	=13	=13	=13	=13	=13	=13
2.d	.	0.D	-son,	1A]	.	2d	.
.	.	.	.	.	.	1f	.
4c	.	.	.	.	.	.	.
2B	.	.	.	2.d	.	.	.
2.A	.	.	.	.	.	2e	.
.	.	.	.	4c	.	.	.
.	.	.	.	2B	.	2d	.
4G	.	.	.	.	.	.	.
[2F	.	.	.	[2A	.	4c	.
.	.	.	.	.	.	4B	.
=14	=14	=14	=14	=14	=14	=14	=14
4F]	.	1d	e-	4A]	.	1.A	.
4E	.	.	.	4G	.	.	.
2D	.	.	.	2F	.	.	.
2C	.	0e	-lei-	2E	.	.	.
2BB	.	.	.	2D	.	2B	.
1AA	-son,	.	.	1E	.	1c#i	.
=15	=15	=15	=15	=15	=15	=15	=15
1r	.	0.A	-son,	1D	-son,	1.d	-son,
[0D	ky-	.	.	1r	.	.	.
.	.	.	.	.	.	1f	ky-
.	.	.	.	[1d	ky-	.	.
.	.	.	.	.	.	2g	.
=16	=16	=16	=16	=16	=16	=16	=16
0D]	.	1A	ky-	2d]	.	1.a	.
.	.	.	.	2e	.	.	.
.	.	1d	.	1f	.	.	.
.	.	.	.	.	.	1b-i	.
1C	.	1A	.	2e	.	.	.
.	.	.	.	2c	.	[2a	.
=17	=17	=17	=17	=17	=17	=17	=17
1BB-i	-ri-	1B-	.	1d	.	4a]	.
.	.	.	.	.	.	4g	.
.	.	.	.	.	.	2.g	.
0C	-e	1A	.	0c	-ri-	.	.
.	.	.	.	.	.	4f	.
.	.	.	.	.	.	1f	.
.	.	1G	-ri-	.	.	.	.
.	.	.	.	.	.	2e	-ri-
=18	=18	=18	=18	=18	=18	=18	=18
1r	.	0.F	-e	0c	-e	1f	-e
0c	e-	.	.	.	.	2r	.
.	.	.	.	.	.	2.f	e-
.	.	.	.	1A	e-	.	.
.	.	.	.	.	.	4g	.
.	.	.	.	.	.	2a	.
=19	=19	=19	=19	=19	=19	=19	=19
1A	-lei-	0.F	e-	2.F	-lei-	2b	.
.	.	.	.	.	.	1cc	.
.	.	.	.	8GL	.	.	.
.	.	.	.	8AJ	.	.	.
1F	.	.	.	2B	.	.	.
.	.	.	.	1c	.	2a	.
1D	.	.	.	.	.	4b-i	-lei-
.	.	.	.	.	.	4a	.
.	.	.	.	2B	.	4g	.
.	.	.	.	.	.	4f	.
=20	=20	=20	=20	=20	=20	=20	=20
1C	.	0.G	-lei-	1c	.	2e	.
.	.	.	.	.	.	1g	.
1BB	.	.	.	1d	.	.	.
.	.	.	.	.	.	2f	.
1C	.	.	.	1c	.	2e	.
.	.	.	.	.	.	2d	.
=21	=21	=21	=21	=21	=21	=21	=21
1D	.	1F	.	0.A	.	1d	.
0AA	.	0E	.	.	.	2e	.
.	.	.	.	.	.	1c#i	.
.	.	.	.	.	.	2B	.
=22	=22	=22	=22	=22	=22	=22	=22
[0.Dl	-son.	[0.Dl	-son.	0.F	-son.	[0.dl	-son.
=23	=23	=23	=23	=23	=23	=23	=23
0.D]	.	0.D]	.	0.Al	.	0.d]	.
!!LO:LB:i:g=z
=24||	=24||	=24||	=24||	=24||	=24||	=24||	=24||
*>B	*>B	*>B	*>B	*>B	*>B	*>B	*>B
*clefF4	*	*clefGv2	*	*clefGv2	*	*clefG2	*
*k[]	*	*k[]	*	*k[]	*	*k[]	*
*M2/1	*	*M2/1	*	*M2/1	*	*M2/1	*
*met(O2)	*	*met(O2)	*	*met(O2)	*	*met(O2)	*
*MM400	*	*MM400	*	*MM400	*	*MM400	*
!!section: Christe
!!!OMD: Christe
[0A	Chri-	0r	.	0A	Chri-	[0e	Chri-
=25.	=25.	=25.	=25.	=25.	=25.	=25.	=25.
0A]	.	0r	.	0c	.	0e]	.
=26.	=26.	=26.	=26.	=26.	=26.	=26.	=26.
0D	-ste	0r	.	0d	-ste	1f	-ste
.	.	.	.	.	.	2g	.
.	.	.	.	.	.	[2a	.
=27	=27	=27	=27	=27	=27	=27	=27
0AA	.	0r	.	0c	e-	2a]	.
.	.	.	.	.	.	2g	.
.	.	.	.	.	.	1e	.
=28.	=28.	=28.	=28.	=28.	=28.	=28.	=28.
0D	.	0r	.	1d	.	1.d	.
.	.	.	.	1f	.	.	.
.	.	.	.	.	.	2c	.
=29.	=29.	=29.	=29.	=29.	=29.	=29.	=29.
1r	.	0r	.	1e	.	1A	.
[1D	e-	.	.	1d	.	[1f	e-
=30	=30	=30	=30	=30	=30	=30	=30
1D]	.	0r	.	0A	.	2f]	.
.	.	.	.	.	.	2e	.
1AA	.	.	.	.	.	[1e	.
=31.	=31.	=31.	=31.	=31.	=31.	=31.	=31.
0A	.	0r	.	0c	-e-	1e]	.
.	.	.	.	.	.	1a	.
=32.	=32.	=32.	=32.	=32.	=32.	=32.	=32.
0B-i	-lei-	0r	.	0d	-lei-	2g	-lei-
.	.	.	.	.	.	1f	.
.	.	.	.	.	.	4e	.
.	.	.	.	.	.	4d	.
=33	=33	=33	=33	=33	=33	=33	=33
0A	-son,	0r	.	0e	-son,	0c	-son,
=34.	=34.	=34.	=34.	=34.	=34.	=34.	=34.
0B-i	.	0r	.	0d	.	1f	e-
.	.	.	.	.	.	1g	.
=35.	=35.	=35.	=35.	=35.	=35.	=35.	=35.
0A	.	0r	.	0c	e-	0a	.
=36	=36	=36	=36	=36	=36	=36	=36
0G	.	0r	.	[0B-i	-lei-	1.d	-lei-
.	.	.	.	.	.	2e	.
=37.	=37.	=37.	=37.	=37.	=37.	=37.	=37.
1r	.	0r	.	0B-_	.	1f	.
[1G	e-	.	.	.	.	1g	.
=38.	=38.	=38.	=38.	=38.	=38.	=38.	=38.
2G]	.	0r	.	0B-]	.	1.d	.
2F	.	.	.	.	.	.	.
[1D	-lei-	.	.	.	.	.	.
.	.	.	.	.	.	[2f	.
=39	=39	=39	=39	=39	=39	=39	=39
2D]	.	0r	.	[0A	.	2f]	.
4C	.	.	.	.	.	4e	.
4BB	.	.	.	.	.	4d	.
2.AA	.	.	.	.	.	2e	.
.	.	.	.	.	.	2f	.
4BB	.	.	.	.	.	.	.
=40.	=40.	=40.	=40.	=40.	=40.	=40.	=40.
2C	.	0r	.	0A]	.	2e	.
1D	.	.	.	.	.	2d	.
.	.	.	.	.	.	1e	-son,
2C#i	.	.	.	.	.	.	.
=41.	=41.	=41.	=41.	=41.	=41.	=41.	=41.
1D	-son,	0r	.	0D	-son,	1r	.
1r	.	.	.	.	.	[1d	Chri-
=42	=42	=42	=42	=42	=42	=42	=42
[0D	Chri-	0r	.	0r	.	2d]	.
.	.	.	.	.	.	2e	.
.	.	.	.	.	.	[1f	.
=43.	=43.	=43.	=43.	=43.	=43.	=43.	=43.
1D]	.	0r	.	0r	.	2f]	.
.	.	.	.	.	.	2e	.
[1F	.	.	.	.	.	1d	.
=44.	=44.	=44.	=44.	=44.	=44.	=44.	=44.
2F]	.	0r	.	0r	.	2c	.
2E	.	.	.	.	.	4d	.
.	.	.	.	.	.	4e	.
1D	.	.	.	.	.	2f	.
.	.	.	.	.	.	2g	.
=45	=45	=45	=45	=45	=45	=45	=45
2C	.	0r	.	0r	.	1e	-ste
4D	.	.	.	.	.	.	.
4E	.	.	.	.	.	.	.
2F	.	.	.	.	.	1d	.
2G	.	.	.	.	.	.	.
=46.	=46.	=46.	=46.	=46.	=46.	=46.	=46.
1E	-ste	0r	.	0r	.	1r	.
1D	.	.	.	.	.	[1a	e-
=47.	=47.	=47.	=47.	=47.	=47.	=47.	=47.
1r	.	0r	.	0r	.	2a]	.
.	.	.	.	.	.	2g	.
[1A	e-	.	.	.	.	[1a	.
=48	=48	=48	=48	=48	=48	=48	=48
2A]	.	0r	.	0r	.	2a]	.
2G	.	.	.	.	.	2e	.
[1A	.	.	.	.	.	2.f	.
.	.	.	.	.	.	4g	.
=49.	=49.	=49.	=49.	=49.	=49.	=49.	=49.
2A]	.	0r	.	0r	.	1e	.
2E	.	.	.	.	.	.	.
2.F	.	.	.	.	.	1a	.
4G	.	.	.	.	.	.	.
=50.	=50.	=50.	=50.	=50.	=50.	=50.	=50.
1E	.	0r	.	0r	.	2g	-lei-
.	.	.	.	.	.	2e	.
1D	.	.	.	.	.	2f	.
.	.	.	.	.	.	2d	.
=51	=51	=51	=51	=51	=51	=51	=51
1A	-lei-	0r	.	0r	.	1c	.
2G	.	.	.	.	.	2d	.
2E	.	.	.	.	.	2c	.
=52.	=52.	=52.	=52.	=52.	=52.	=52.	=52.
2F	.	0r	.	0r	.	2d	.
2D	.	.	.	.	.	2f	.
1C	-son,	.	.	.	.	1e	.
=53.	=53.	=53.	=53.	=53.	=53.	=53.	=53.
2D	e-	0r	.	0r	.	1A	-son,
2C	.	.	.	.	.	.	.
2D	.	.	.	.	.	1a	e-
2F	.	.	.	.	.	.	.
=54	=54	=54	=54	=54	=54	=54	=54
2E	.	0r	.	0r	.	2g	-lei-
1A	-lei-	.	.	.	.	2e	.
.	.	.	.	.	.	2f	.
[2G	.	.	.	.	.	4.g	.
.	.	.	.	.	.	8f	.
=55.	=55.	=55.	=55.	=55.	=55.	=55.	=55.
2G]	.	0r	.	0r	.	4e	.
.	.	.	.	.	.	4d	.
2F	.	.	.	.	.	2d	.
1E	.	.	.	.	.	2.c#i	.
.	.	.	.	.	.	4B	.
=56.	=56.	=56.	=56.	=56.	=56.	=56.	=56.
0D	-son,	0r	.	1r	.	[0d	-son,
.	.	.	.	1A	Chri-	.	.
=57	=57	=57	=57	=57	=57	=57	=57
1r	.	0r	.	1B	.	0d]	.
[1D	Chri-	.	.	2A	.	.	.
.	.	.	.	[2d	.	.	.
=58.	=58.	=58.	=58.	=58.	=58.	=58.	=58.
1D]	.	0r	.	2d]	.	0r	.
.	.	.	.	2c	.	.	.
1C	.	.	.	[1A	.	.	.
=59.	=59.	=59.	=59.	=59.	=59.	=59.	=59.
0BB	.	0r	.	2A]	.	0d	Chri-
.	.	.	.	4G	.	.	.
.	.	.	.	4F	.	.	.
.	.	.	.	4G	.	.	.
.	.	.	.	4F	.	.	.
.	.	.	.	4E	.	.	.
.	.	.	.	4D	.	.	.
=60	=60	=60	=60	=60	=60	=60	=60
0AA	-ste	0r	.	1C	.	1.e	.
.	.	.	.	[1E	.	.	.
.	.	.	.	.	.	4d	.
.	.	.	.	.	.	4c	.
=61.	=61.	=61.	=61.	=61.	=61.	=61.	=61.
1GG	e-	0r	.	2E]	.	1B	.
.	.	.	.	2D	.	.	.
[1D	.	.	.	2F	.	1A	.
.	.	.	.	2G	.	.	.
=62.	=62.	=62.	=62.	=62.	=62.	=62.	=62.
2D]	.	0r	.	1A	-ste	1.d	-ste
2E	.	.	.	.	.	.	.
2F	.	.	.	1D	.	.	.
2G	.	.	.	.	.	2B	.
=63	=63	=63	=63	=63	=63	=63	=63
1A	.	0r	.	1r	.	1c	.
[1D	.	.	.	[1A	e-	2d	.
.	.	.	.	.	.	2e	.
=64.	=64.	=64.	=64.	=64.	=64.	=64.	=64.
1D]	.	0r	.	2A]	.	2f	.
.	.	.	.	2B	.	2g	.
1C	.	.	.	1c	.	1e	.
=65.	=65.	=65.	=65.	=65.	=65.	=65.	=65.
2D	-lei-	0r	.	2B	.	1d	.
2E	.	.	.	2c	.	.	.
2F	.	.	.	2A	.	1r	.
2G	.	.	.	[2d	.	.	.
=66	=66	=66	=66	=66	=66	=66	=66
1E	-son,	0r	.	2d]	.	1g	e-
.	.	.	.	2c	.	.	.
1D	.	.	.	2d	.	2f	.
.	.	.	.	[2f	-lei-	[2a	-lei-
=67.	=67.	=67.	=67.	=67.	=67.	=67.	=67.
1r	.	0r	.	2f]	.	2a]	.
.	.	.	.	2e	.	2g	.
1D	e-	.	.	2.d	.	2f	.
.	.	.	.	.	.	2d	.
.	.	.	.	4c	.	.	.
=68.	=68.	=68.	=68.	=68.	=68.	=68.	=68.
1G	-lei-	0r	.	1B	.	1e	.
2F	.	.	.	1A	-son,	2d	.
[2A	.	.	.	.	.	[2f	.
=69	=69	=69	=69	=69	=69	=69	=69
2A]	.	0r	.	1r	.	2f]	.
2G	.	.	.	.	.	2e	.
2F	.	.	.	1D	e-	1d	.
2D	.	.	.	.	.	.	.
=70.	=70.	=70.	=70.	=70.	=70.	=70.	=70.
1E	.	0r	.	1G	-lei-	1c	.
2D	.	.	.	2F	.	1d	.
[2F	.	.	.	[2A	.	.	.
=71.	=71.	=71.	=71.	=71.	=71.	=71.	=71.
2F]	.	0r	.	2A]	.	2A	.
2E	.	.	.	2G	.	2c	.
1D	.	.	.	2F	.	2d	.
.	.	.	.	2D	.	2f	.
=72	=72	=72	=72	=72	=72	=72	=72
1C	-son,	0r	.	1E	-son,	1e	.
1D	.	.	.	2D	Chri-	[1a	-son,
.	.	.	.	[2F	.	.	.
=73.	=73.	=73.	=73.	=73.	=73.	=73.	=73.
2AA	Chri-	0r	.	2F]	.	1a]	.
2C	.	.	.	2E	.	.	.
2D	.	.	.	1D	.	2r	.
2F	.	.	.	.	.	[2a	Chri-
=74.	=74.	=74.	=74.	=74.	=74.	=74.	=74.
2E	.	0r	.	2C	.	4a]	.
.	.	.	.	.	.	4g	.
2.A	.	.	.	2D	.	2f	.
.	.	.	.	2E	.	2e	.
4G	.	.	.	.	.	.	.
2F	.	.	.	2F	.	2d	.
=75	=75	=75	=75	=75	=75	=75	=75
2E	.	0r	.	2G	.	2c	.
2D	.	.	.	1A	.	2d	.
[1C	-ste	.	.	.	.	1e	.
.	.	.	.	[2E	-ste	.	.
=76.	=76.	=76.	=76.	=76.	=76.	=76.	=76.
2C]	.	0r	.	2E]	.	1A	-ste
1D	e-	.	.	2D	e-	.	.
.	.	.	.	2F	-lei-	2B	e-
2E	.	.	.	2G	.	[2c	-lei-
=77.	=77.	=77.	=77.	=77.	=77.	=77.	=77.
1F	.	0r	.	1A	.	2c]	.
.	.	.	.	.	.	2d	.
2G	-lei-	.	.	2B	.	1e	.
[2A	.	.	.	2A	.	.	.
=78	=78	=78	=78	=78	=78	=78	=78
2A]	.	0r	.	2c	.	2f	.
2B	.	.	.	2d	.	1g	.
1c	.	.	.	2e	-son,	.	.
.	.	.	.	2A	.	[2a	.
=79.	=79.	=79.	=79.	=79.	=79.	=79.	=79.
1d	-son,	0r	.	2r	.	1.a]	.
.	.	.	.	1f	e-	.	.
2A	e-	.	.	.	.	.	.
2B	.	.	.	2d	.	[2g	.
=80.	=80.	=80.	=80.	=80.	=80.	=80.	=80.
2G	-lei-	0r	.	2e	-lei-	2g]	.
2A	.	.	.	2c	.	1f	.
2F	.	.	.	2d	.	.	.
2G	.	.	.	2B	.	[2e	.
=81	=81	=81	=81	=81	=81	=81	=81
2E	.	0r	.	2c	.	2e]	.
2F	.	.	.	2A	.	1d	.
2D	.	.	.	2B	.	.	.
2E	.	.	.	2G	.	[2c	.
=82.	=82.	=82.	=82.	=82.	=82.	=82.	=82.
2.AA	.	0r	.	0A	-son,	2c]	.
.	.	.	.	.	.	1e	-son,
4BB	.	.	.	.	.	.	.
2C	.	.	.	.	.	.	.
2D	.	.	.	.	.	[2A	Chri-
=83.	=83.	=83.	=83.	=83.	=83.	=83.	=83.
1F	.	0r	.	1D	Chri-	2A]	.
.	.	.	.	.	.	2d	.
1E	.	.	.	1G	.	2B	.
.	.	.	.	.	.	2c	.
=84	=84	=84	=84	=84	=84	=84	=84
1D	-son,	0r	.	1A	-ste	2d	-ste e-
.	.	.	.	.	.	2f	.
[1G	e-	.	.	2B	e-	2e	.
.	.	.	.	[2d	.	[2g	.
=85.	=85.	=85.	=85.	=85.	=85.	=85.	=85.
1G]	.	0r	.	2d]	.	4g]	.
.	.	.	.	.	.	4f	.
.	.	.	.	2c	.	2e	.
1F	.	.	.	1A	.	2d	.
.	.	.	.	.	.	4c	.
.	.	.	.	.	.	4d	.
=86.	=86.	=86.	=86.	=86.	=86.	=86.	=86.
0E	-lei-	0r	.	2B	-lei-	2e	-lei-
.	.	.	.	1G	.	1c#i	.
.	.	.	.	2F	.	4B	.
.	.	.	.	.	.	4c#i	.
=87	=87	=87	=87	=87	=87	=87	=87
0Dl	-son.	0r	.	0Al	-son.	0dl	-son.
!!LO:LB:i:g=z
=88||	=88||	=88||	=88||	=88||	=88||	=88||	=88||
*>C	*>C	*>C	*>C	*>C	*>C	*>C	*>C
*clefF4	*	*clefGv2	*	*clefGv2	*	*clefG2	*
*k[]	*	*k[]	*	*k[]	*	*k[]	*
*M3/1	*	*M3/1	*	*M3/1	*	*M3/1	*
*met(O)	*	*met(O)	*	*met(O)	*	*met(O)	*
!!section: Kyrie II
!!!OMD: Kyrie II
!	!	!LO:TX:Z=18:t=Twofold T statement (repeat sign); twofold augmentation	!	!	!	!	!
0.D	-Ky-	0.f	Ky-	0d	Ky-	[0.a	Ky-
.	.	.	.	1d	-ri-	.	.
=89	=89	=89	=89	=89	=89	=89	=89
1.A	-ri-	[0.e	-ri-	1c	.	1a]	.
.	.	.	.	0A	.	0cc	-ri-
1c	.	.	.	.	.	.	.
2B	.	.	.	.	.	.	.
=90	=90	=90	=90	=90	=90	=90	=90
1G	.	0.e]	.	1E	-e	1b	-e
0A	.	.	.	2r	.	1cc	e-
.	.	.	.	1.c	e-	.	.
.	.	.	.	.	.	2b	-lei-
.	.	.	.	.	.	[2a	.
=91	=91	=91	=91	=91	=91	=91	=91
0.D	-e,	0d	-e,	0A	-lei-	2a]	.
.	.	.	.	.	.	1f	.
.	.	.	.	.	.	2g	.
.	.	1d	ky-	1F	.	1a	.
=92	=92	=92	=92	=92	=92	=92	=92
1r	.	1B	.	1G	-son,	1.d	-son,
1D	ky-	1A	.	2r	.	.	.
.	.	.	.	2A	ky-	1a	ky-
1C	-ri-	1e	.	1c	.	.	.
.	.	.	.	.	.	[2g	-ri-
=93	=93	=93	=93	=93	=93	=93	=93
1D	-e,	1d	.	2B	.	2g]	.
.	.	.	.	1A	.	1f	-e,
2r	.	1c	.	.	.	.	.
2E	ky-	.	.	2G	.	2g	.
1D	.	1d	.	2B	.	2r	.
.	.	.	.	2A	.	[2a	ky-
=94	=94	=94	=94	=94	=94	=94	=94
1C	.	1e	.	1c	.	2a]	.
.	.	.	.	.	.	1g	.
1G	-ri-	1d	.	2B	.	.	.
.	.	.	.	1.d	.	1b	.
1D	-e,	1f	.	.	.	.	.
.	.	.	.	.	.	[2a	.
=95	=95	=95	=95	=95	=95	=95	=95
2r	.	0.e	-ri-	1A	-ri-	2a]	.
1A	ky-	.	.	.	.	1cc	.
.	.	.	.	0c	-e	.	.
2F	.	.	.	.	.	4b	.
.	.	.	.	.	.	4a	.
1E	-ri-	.	.	.	.	1g	-ri-
=96	=96	=96	=96	=96	=96	=96	=96
1.D	-e	0.A	-e	1d	e-	1f	-e
.	.	.	.	2.f	-lei-	0a	e-
2E	.	.	.	.	.	.	.
.	.	.	.	4e	.	.	.
1F	e-	.	.	2d	.	.	.
.	.	.	.	2c	.	.	.
=97	=97	=97	=97	=97	=97	=97	=97
1G	-lei-	0d	e-	1B-	-son,	1b-i	-lei-
0D	.	.	.	2r	.	2a	.
.	.	.	.	2.f	e-	1a	.
.	.	1A	.	.	.	.	.
.	.	.	.	4d	.	.	.
.	.	.	.	2d	.	2f	.
=98	=98	=98	=98	=98	=98	=98	=98
1E	.	1G	-lei-	2c	-lei-	1e	.
.	.	.	.	2B	.	.	.
1F	.	1D	.	2A	.	2d	.
.	.	.	.	1d	.	2a	.
1G	.	1E	.	.	.	2g	.
.	.	.	.	2c#i	.	2e	.
=99	=99	=99	=99	=99	=99	=99	=99
1A	-son,	[0.D	-son,	0d	-son,	2f	.
.	.	.	.	.	.	2g	.
2.F	ky-	.	.	.	.	1.a	-son,
4G	.	.	.	.	.	.	.
2A	.	.	.	1d	ky-	.	.
2B-i	.	.	.	.	.	[2d	ky-
=100	=100	=100	=100	=100	=100	=100	=100
2A	.	0.D]	.	1f	.	2d]	.
1d	.	.	.	.	.	2B	.
.	.	.	.	1.f	-ri-	2A	.
4c	.	.	.	.	.	1d	.
4Bni	.	.	.	.	.	.	.
1A	.	.	.	.	.	.	.
.	.	.	.	2e	.	2c	.
=101	=101	=101	=101	=101	=101	=101	=101
0.D	.	0.f	ky-	2d	.	0d	.
.	.	.	.	4c	.	.	.
.	.	.	.	4B	.	.	.
.	.	.	.	1A	.	.	.
.	.	.	.	2B	.	1d	-ri-
.	.	.	.	[2A	.	.	.
=102	=102	=102	=102	=102	=102	=102	=102
0.E	-ri-	[0.e	-ri-	2A]	.	1c	.
.	.	.	.	1G	.	.	.
.	.	.	.	.	.	0B	.
.	.	.	.	2A	.	.	.
.	.	.	.	1G#i	.	.	.
=103	=103	=103	=103	=103	=103	=103	=103
0.AA	-e,	0.e]	.	0A	-e,	2A	-e,
.	.	.	.	.	.	1c	.
.	.	.	.	.	.	2d	.
.	.	.	.	1A	.	2c	.
.	.	.	.	.	.	2B	.
=104	=104	=104	=104	=104	=104	=104	=104
1BB	ky-	0d	-e	1D	.	1d	.
1GG	.	.	.	2r	.	1B	.
.	.	.	.	2G	ky-	.	.
2.D	-ri-	1d	e-	2F	.	1A	.
.	.	.	.	[2D	.	.	.
4E	.	.	.	.	.	.	.
=105	=105	=105	=105	=105	=105	=105	=105
2F	.	1B	-lei-	2D]	.	2r	.
2G	.	.	.	2E	.	2.e	ky-
1A	-e	1A	.	2F	.	.	.
.	.	.	.	.	.	4d	.
.	.	.	.	2G	.	1d	.
1AA	e-	1e	.	1A	-ri-	.	.
.	.	.	.	.	.	2c	-ri-
=106	=106	=106	=106	=106	=106	=106	=106
1BB	-lei-	1d	.	1D	-e	2d	-e e-
.	.	.	.	.	.	1f	.
1AA	.	1c	.	0A	.	.	.
.	.	.	.	.	.	2e	.
1D	.	1d	.	.	.	2d	.
.	.	.	.	.	.	[2a	-lei-
=107	=107	=107	=107	=107	=107	=107	=107
1C	.	1e	.	1c	e-	2a]	.
.	.	.	.	.	.	2g	.
0D	.	1d	.	0B	-lei-	2f	.
.	.	.	.	.	.	2e	.
.	.	1f	.	.	.	1d	.
=108	=108	=108	=108	=108	=108	=108	=108
0.AA	-son,	0.e	-son,	0.A	-son,	0.c	-son,
=109	=109	=109	=109	=109	=109	=109	=109
0AA	e-	0.A	.	0E	e-	2r	.
.	.	.	.	.	.	2.c	e-
.	.	.	.	.	.	4d	.
.	.	.	.	.	.	2e	.
[1D	.	.	.	2D	-lei-	2f	-lei-
.	.	.	.	[2F	.	[2d	.
=110	=110	=110	=110	=110	=110	=110	=110
1D]	.	0d	e-	4F]	.	4d]	.
.	.	.	.	4G	.	4c	.
.	.	.	.	2A	.	2f	.
2GG	-lei-	.	.	2B-i	.	2g	.
1.D	.	.	.	2A	.	1a	.
.	.	1A	.	1d	.	.	.
.	.	.	.	.	.	2f	.
=111	=111	=111	=111	=111	=111	=111	=111
2E	.	1G	-lei-	2Bni	.	2e	.
2C	.	.	.	2c	.	2g	.
2D	.	1D	.	2A	.	2f	.
2BB	.	.	.	2G	.	2.d	.
1AA	.	1E	.	1A	.	.	.
.	.	.	.	.	.	4c#i	.
.	.	.	.	.	.	4c#i	.
.	.	.	.	.	.	4B	.
=112	=112	=112	=112	=112	=112	=112	=112
!	!	!LO:TX:Z=12:X=-15:t=MS&colon; 2 longs	!	!	!	!	!
0.Dl	-son.	0.Dl	-son.	0.Al	-son.	0.dl	-son.
==	==	==	==	==	==	==	==
*-	*-	*-	*-	*-	*-	*-	*-
!!!RDF**kern: l=long note in original notation
!!!RDF**kern: i=editorial accidental
!!!ENC: Jesse Rodin & Emily Zazulia
!!!END: 2019/01/10/
!!!EED: Jesse Rodin & Emily Zazulia
!!!EEV: 2019/01/11/
!!!ONB: Translated from MusicXML and edited on 2019/01/11/ by Craig Sapp
!!muse2ps: T^@{OPR}^u^@{ONM}{. }@{OTL}^C^@{SMS}, @{folio-OPR}\nEd. @{EED}^v90,90,90,130i2c95z18l2650
